svg/u1f96c.svg

<svg viewBox="0 0 128 128" xmlns="http://www.w3.org/2000/svg">
  <path d="M30.94,78.75c0-0.94-0.31-14.43-1.57-19.29s-3.61-7.06-4.24-14.12s3.47-12.98,5.34-15.19 c3.45-4.07,8.46-5.98,8.46-5.98s-1.17-7.17,4.39-10.51C49.6,9.89,54.31,16,55.25,16.47S75.33,6.44,75.33,6.44s3.45-2.61,10.2-2.51 c9.32,0.13,13.15,5.79,14.9,7.84c2.67,3.14,4.92,10.73,4.77,15.28s-1.23,6.71-0.71,7.79s3.37,0.55,5.93,3.62 c2.35,2.82,5.5,7.29,5.66,15.6c0.15,8.05-7.72,18.69-9.6,20.41c-1.88,1.73-4.09,3.48-5.66,5.84c-1.57,2.35-3.53,7.09-7.6,10.23 c-4.08,3.14-10.34,4.36-14.42,4.83c-4.08,0.47-8.2-0.34-11.04,1.53c-2.94,1.93-6.42,10.17-12.08,14.59c-3.32,2.6-6.13,3.6-9.31,3.77 c-4.88,0.27-7.01-0.91-8.98-1.47C34.08,112.85,30.94,78.75,30.94,78.75z" fill="#598B15"/>
  <path d="M22.43,102.03c0,0-6.64-4.85-4.8-14.03c1.64-8.2,6.44-11.65,8.62-19.27 c2.16-7.56,0.88-10.87,0.33-14.45c-0.6-3.91-0.92-4.21-0.47-4.41c0.47-0.21,4.83,11.78,4.83,12.05c0.09,3.47,1.08,9.31,0.35,12.85 c-0.73,3.54-7.63,8.62-8.08,12.07c-0.45,3.45-1.82,11.17-1,13.25c0.82,2.09,4.81,2.83,4.81,2.83L22.43,102.03z" fill="#85BB41"/>
  <radialGradient id="SVGID_1_" cx="102.0328" cy="18.288" gradientUnits="userSpaceOnUse" r="125.7932">
    <stop offset="0.5544" stop-color="#85BB41"/>
    <stop offset="0.6141" stop-color="#A2C65F"/>
    <stop offset="0.706" stop-color="#C9D487"/>
    <stop offset="0.7788" stop-color="#E1DDA0"/>
    <stop offset="0.8231" stop-color="#EAE0A9"/>
  </radialGradient>
  <path d="M22.94,101.02c-0.36,0.48-1.81,2.29-3.38,3.62c-1.57,1.33-5.07,2.17-4.95,3.02 c0.12,0.84,10.13,9.89,10.13,9.89l8.3,5.97c0,0,2.44-2.87,3.98-5.66c0.84-1.52,1.84-3.57,1.84-3.57s2.66,1.22,6.77,0.56 c6.15-0.98,11.71-8.11,14.11-12.38c1.52-2.7,4.33-8.09,8.79-10.62c4.46-2.53,9.81-2.96,14.88-5.73c3.97-2.18,9.37-6.94,11.54-10.43 c2.17-3.5,2.05-4.8,2.05-4.8s11.7-13.54,7.72-28.5s-7.96-13.27-10.74-17.13c-2.77-3.86-3.14-13.63-12.79-17.61 S61.9,7.63,56.92,11.69c-4.79,3.9-12.74,10.26-17.13,24.94c-2.27,7.61-0.01,20.15-0.3,23.44c-0.48,5.4-6.9,12.61-6.9,12.61 s-7.24,8.2-7.6,9.17c-0.36,0.97-3.02,12.91-3.02,12.91L22.94,101.02z" fill="url(#SVGID_1_)"/>
  <path d="M41.65,101.91c0.91,0.09,8.08-0.91,12.98-7.35c4.9-6.44,4.81-14.07,4.72-13.8s-12.62,1.63-12.8,5.9 C46.37,90.92,41.65,101.91,41.65,101.91z" fill="#598B15"/>
  <path d="M26.28,104.73c0,0-6.9-2.26-6.28-11.74c0.6-9.25,8.07-13.44,9.43-23.83 c0.66-5.03-0.74-8.95-1.98-13.16c-1.35-4.59-2.45-9.03-1.7-7.54c1.17,2.33,2.03,3.85,4.75,10.41c1.63,3.93,2.94,8.67,2.33,13.46 c-0.99,7.79-8.34,14.15-8.97,20.58c-0.74,7.54,3.05,10.77,3.05,10.77L26.28,104.73z" fill="#E9E7D7"/>
  <path d="M30.04,111.83c-2.32-2.05-5.57-6.43-3.96-12.12c2.1-7.42,6.68-9.77,11.25-16.7s5.32-13.45,5.41-20.39 c0.12-9.28,0.65-16.72,2.26-17.21c1.61-0.49,0.78,9.26,1.15,17.3c0.26,5.56,0.95,14.11,0.95,14.11s4.91-4.12,6.09-9.69 c2.1-9.89-1.86-20.6-1.02-31.74c0.63-8.29,4.56-16.34,8.53-20.65c2.84-3.09,5.69-5.44,6.55-4.95s-4.95,6.43-7.54,13.36 S56.51,36.88,57.5,44.3s2.38,14.78,3.25,14.53c0.87-0.25,6.16-10.77,7.81-18.86c1.61-7.92,2.43-13.23,6.26-18.55 c3.83-5.32,8.29-8.41,9.03-7.67c1.31,1.31-3.56,3.7-6.77,11.61c-1.92,4.72-1.88,7.97-3.54,16.15c-0.85,4.21-4.01,13.63-3.89,14.01 s4.46-1.82,7.55-4.04s8.51-6.34,13.33-12.65c2.73-3.58,4.57-6.53,5.81-5.67c1.24,0.87-4.3,11.54-9.42,16.31 c-7.3,6.8-16.68,11.89-16.68,12.87s8.94,0.19,17.85-2.27c7.17-1.98,14.8-7.5,15.67-6.14c0.87,1.36-8.04,6.41-13.84,8.66 c-9.28,3.59-17.08,3.22-22.4,6.43c-5.32,3.22-8.5,8.54-9.03,9.52c-0.19,0.35,8.9-2.1,17.56-3.34c8.66-1.24,20.53-5.44,20.9-4.08 c0.37,1.36-4.33,4.08-14.72,6.55c-10.39,2.47-18.3,4.82-23.99,8.41S48.97,94.02,46,99.21c-2.97,5.19-3.02,13.37-7.35,15.23 C35.8,115.66,32.15,113.68,30.04,111.83z" fill="#E9E7D7"/>
  <path d="M14.75,107.1c-1.28,0.64-0.77,2.53-0.01,3.68c1.15,1.77,3.1,3.78,7.77,7.43 c3.63,2.83,5.45,4.12,7.55,5.03c1.64,0.71,3.29,0.75,3.56-0.35c0.07-0.28-5.89-4.15-9.64-7.13 C17.52,110.64,15.03,106.96,14.75,107.1z" fill="#B5CF17"/>
</svg>

<svg viewBox="0 0 128 128" xmlns="http://www.w3.org/2000/svg">
  <defs>
    <radialGradient id="SVGID_1_" cx="102.0328" cy="18.288" gradientUnits="userSpaceOnUse" r="125.7932">
      <stop offset="0.5544" stop-color="#85BB41"/>
      <stop offset="0.6141" stop-color="#A2C65F"/>
      <stop offset="0.706" stop-color="#C9D487"/>
      <stop offset="0.7788" stop-color="#E1DDA0"/>
      <stop offset="0.8231" stop-color="#EAE0A9"/>
    </radialGradient>
  </defs>
  <path d="M30.94,78.75 C30.94,77.81 30.63,64.32 29.37,59.46 C28.11,54.6 25.76,52.4 25.13,45.34 C24.5,38.28 28.6,32.36 30.47,30.15 C33.92,26.08 38.93,24.17 38.93,24.17 C38.93,24.17 37.76,17 43.32,13.66 C49.6,9.89 54.31,16 55.25,16.47 C56.19,16.94 75.33,6.44 75.33,6.44 C75.33,6.44 78.78,3.83 85.53,3.93 C94.85,4.06 98.68,9.72 100.43,11.77 C103.1,14.91 105.35,22.5 105.2,27.05 C105.05,31.6 103.97,33.76 104.49,34.84 C105.01,35.92 107.86,35.39 110.42,38.46 C112.77,41.28 115.92,45.75 116.08,54.06 C116.23,62.11 108.36,72.75 106.48,74.47 C104.6,76.2 102.39,77.95 100.82,80.31 C99.25,82.66 97.29,87.4 93.22,90.54 C89.14,93.68 82.88,94.9 78.8,95.37 C74.72,95.84 70.6,95.03 67.76,96.9 C64.82,98.83 61.34,107.07 55.68,111.49 C52.36,114.09 49.55,115.09 46.37,115.26 C41.49,115.53 39.36,114.35 37.39,113.79 C34.08,112.85 30.94,78.75 30.94,78.75 Z" fill="#598B15"/>
  <path d="M22.43,102.03 C22.43,102.03 15.79,97.18 17.63,88 C19.27,79.8 24.07,76.35 26.25,68.73 C28.41,61.17 27.13,57.86 26.58,54.28 C25.98,50.37 25.66,50.07 26.11,49.87 C26.58,49.66 30.94,61.65 30.94,61.92 C31.03,65.39 32.02,71.23 31.29,74.77 C30.56,78.31 23.66,83.39 23.21,86.84 C22.76,90.29 21.39,98.01 22.21,100.09 C23.03,102.18 27.02,102.92 27.02,102.92 L22.43,102.03 Z" fill="#85BB41"/>
  <path d="M22.94,101.02 C22.58,101.5 21.13,103.31 19.56,104.64 C17.99,105.97 14.49,106.81 14.61,107.66 C14.73,108.5 24.74,117.55 24.74,117.55 L33.04,123.52 C33.04,123.52 35.48,120.65 37.02,117.86 C37.86,116.34 38.86,114.29 38.86,114.29 C38.86,114.29 41.52,115.51 45.63,114.85 C51.78,113.87 57.34,106.74 59.74,102.47 C61.26,99.77 64.07,94.38 68.53,91.85 C72.99,89.32 78.34,88.89 83.41,86.12 C87.38,83.94 92.78,79.18 94.95,75.69 C97.12,72.19 97,70.89 97,70.89 C97,70.89 108.7,57.35 104.72,42.39 C100.74,27.43 96.76,29.12 93.98,25.26 C91.21,21.4 90.84,11.63 81.19,7.65 C71.54,3.67 61.9,7.63 56.92,11.69 C52.13,15.59 44.18,21.95 39.79,36.63 C37.52,44.24 39.78,56.78 39.49,60.07 C39.01,65.47 32.59,72.68 32.59,72.68 C32.59,72.68 25.35,80.88 24.99,81.85 C24.63,82.82 21.97,94.76 21.97,94.76 L22.94,101.02 Z" fill="url(#SVGID_1_)"/>
  <path d="M41.65,101.91 C42.56,102 49.73,101 54.63,94.56 C59.53,88.12 59.44,80.49 59.35,80.76 C59.26,81.03 46.73,82.39 46.55,86.66 C46.37,90.92 41.65,101.91 41.65,101.91 Z" fill="#598B15"/>
  <path d="M26.28,104.73 C26.28,104.73 19.38,102.47 20,92.99 C20.6,83.74 28.07,79.55 29.43,69.16 C30.09,64.13 28.69,60.21 27.45,56 C26.1,51.41 25,46.97 25.75,48.46 C26.92,50.79 27.78,52.31 30.5,58.87 C32.13,62.8 33.44,67.54 32.83,72.33 C31.84,80.12 24.49,86.48 23.86,92.91 C23.12,100.45 26.91,103.68 26.91,103.68 L26.28,104.73 Z" fill="#E9E7D7"/>
  <path d="M30.04,111.83 C27.72,109.78 24.47,105.4 26.08,99.71 C28.18,92.29 32.76,89.94 37.33,83.01 C41.9,76.08 42.65,69.56 42.74,62.62 C42.86,53.34 43.39,45.9 45,45.41 C46.61,44.92 45.78,54.67 46.15,62.71 C46.41,68.27 47.1,76.82 47.1,76.82 C47.1,76.82 52.01,72.7 53.19,67.13 C55.29,57.24 51.33,46.53 52.17,35.39 C52.8,27.1 56.73,19.05 60.7,14.74 C63.54,11.65 66.39,9.3 67.25,9.79 C68.11,10.28 62.3,16.22 59.71,23.15 C57.12,30.08 56.51,36.88 57.5,44.3 C58.49,51.72 59.88,59.08 60.75,58.83 C61.62,58.58 66.91,48.06 68.56,39.97 C70.17,32.05 70.99,26.74 74.82,21.42 C78.65,16.1 83.11,13.01 83.85,13.75 C85.16,15.06 80.29,17.45 77.08,25.36 C75.16,30.08 75.2,33.33 73.54,41.51 C72.69,45.72 69.53,55.14 69.65,55.52 C69.77,55.9 74.11,53.7 77.2,51.48 C80.29,49.26 85.71,45.14 90.53,38.83 C93.26,35.25 95.1,32.3 96.34,33.16 C97.58,34.03 92.04,44.7 86.92,49.47 C79.62,56.27 70.24,61.36 70.24,62.34 C70.24,63.32 79.18,62.53 88.09,60.07 C95.26,58.09 102.89,52.57 103.76,53.93 C104.63,55.29 95.72,60.34 89.92,62.59 C80.64,66.18 72.84,65.81 67.52,69.02 C62.2,72.24 59.02,77.56 58.49,78.54 C58.3,78.89 67.39,76.44 76.05,75.2 C84.71,73.96 96.58,69.76 96.95,71.12 C97.32,72.48 92.62,75.2 82.23,77.67 C71.84,80.14 63.93,82.49 58.24,86.08 C52.55,89.67 48.97,94.02 46,99.21 C43.03,104.4 42.98,112.58 38.65,114.44 C35.8,115.66 32.15,113.68 30.04,111.83 Z" fill="#E9E7D7"/>
  <path d="M14.75,107.1 C13.47,107.74 13.98,109.63 14.74,110.78 C15.89,112.55 17.84,114.56 22.51,118.21 C26.14,121.04 27.96,122.33 30.06,123.24 C31.7,123.95 33.35,123.99 33.62,122.89 C33.69,122.61 27.73,118.74 23.98,115.76 C17.52,110.64 15.03,106.96 14.75,107.1 Z" fill="#B5CF17"/>
</svg>
